X:1
T:Je ne seray jamais
T:Je ne seray jamais
T:Jean de Castro
T:Source : Livre de Chansons à 3 parties---Paris---le Roy & Ballard---1575. Editor : André Vierendeels (30/09/15).
T:Notes : Original clefs : G2, C1, C3 Editorial accidentals above the staff
C:Jean de Castro
%%score [ 1 2 3 ]
L:1/8
Q:1/4=94
M:2/2
K:C
V:1 treble nm="Superius 1" snm="S 1"
V:2 treble nm="Superius 2" snm="S 2"
V:3 treble-8 nm="Tenor" snm="T"
V:1
 z8 | d2 e2 f4 | e4 d4 | c4 d4 | B4 A2 c2- | c2 B4 A2- | A2 G4 F2 | E2 D2 E4 | ^F4 A2 B2 | %9
w: |Je ne se-|ray ja-|mais ber-|giè- re, je|_ ne se-|* ray ja-|mais ber- giè-|re, sy le|
 c4 A2 B2- | BB c4 d2- | d2 e4 e2 | fedc BA B2 | z2 c2 A4 | B2 d4 d2 | e2 g2 f2 e2 | %16
w: ber- gier, sy|_ le ber- gier|_ n'est a-|vec, _ _ _ _ _ _|a- vec|moy, il es-|toit u- ne fil-|
 d2 c3 B/A/ B2 | c2 e4 d2 | e2 c2 d2 f2 | edcB A4 | G2 d4 e2 | c2 f2 e2 e2 | d8 | z2 g2 e2 e2 | %24
w: let- * * * *|te, il es-|toit u- ne fil-|let- * * * *|te, bel- le|fil- le sans es-|moy,|veit son a-|
 c4 z2 c2 | A2 A2 F4 | z2 f2 e2 B2 | c2 c2 A4 | B4 G2 G2 | A4 d4 | c4 A4 | G4 G2 G2 | A4 e4 | %33
w: my, veit|son a- my,|veit son a-|my de- vant|soy, di- sant,|a- my|bai- sez|moy, di- sant,|a- my,|
 f4 f4 | e2 e4 d2 | c2 c2 B2 B2 | A4 G4 | z2 g4 f2 | d2 d2 e2 e2 | d4 G2 B2 | c2 c2 B4 | c4 e2 f2 | %42
w: bai- sez|moy, puis la|bai- s'et si l'ac-|col- le,|puis la|bai- s'et si l'ac-|col- le, et|si l'ac- col-|le, et luy|
 g4 z2 e2 | d4 z2 e2 | c4 z2 d2 | B4 z2 e2- | e2 d4 c2 | d2 cB A4 | z8 | d2 e2 f4 | e4 d4 | c4 d4 | %52
w: fit je|ne, je|ne, je|ne, je|_ ne scay|_ _ _ quoy,||je ne se-|ray ja-|mais ber-|
 B4 A2 c2- | c2 B4 A2- | A2 G4 F2 | E2 D2 E4 | ^F4 A2 B2 | c4 A2 B2- | BB c4 d2- | d2 e4 e2 | %60
w: giè- re, je|_ ne se-|* ray ja-|mais ber- giè-|re, sy le|ber- gier, sy|_ le ber- gier|_ n'est a-|
 fedc BA B2 | z2 c2 A4 | !fermata!B8 |] %63
w: vec, _ _ _ _ _ _|a- vec|moy.|
V:2
 A2 B2 c4 | B4 A4 | G6 F2 | E4 D4 | z4 z2 A2- | A2 G4 F2- | F2 E4 D2 | ^C2 D2 C4 | D4 D2 D2 | %9
w: ne se- ray|ja- mais|ber- giè-|re, je|ne|_ se- ray|* ja- mais|ber- giè- re,|sy le ber-|
 E4 ^F4 | G2 G2 A4 | B4 c2 c2 | dcBA G4 | z2 G4 ^F2 | G4 z2 G2- | G2 G2 A2 c2 | B2 c2 d4 | %17
w: gier, sy|le ber- gier|n'est a- vec,|a- _ _ _ _|vec moy,|il es-|_ toit u- ne|fil- let- te,|
 G2 c4 B2 | c2 A4 F2 |"^#""^#" A2 G3 F/E/ F2 | G2 B4 c2 | A2 A2 G2 c2 | B2 d2 B2 B2 | G4 z2 c2 | %24
w: il es- toit|u- ne fil-|let- te, * * *|bel- le fil-|le sans es- moy,|veit son a- my,|veit son|
 A2 G2 A4 | z2 c2 A2 A2 | F4 z2 G2 | G2 G2 F4 | G4 E4 | D4 D2 D2 | E4 ^F4 | G4 E4 | D4 G2 G2 | %33
w: a- my, veit|son a- my,|veit son|a- my de-|vant soy,|di- sant a-|my, bai-|sez moy,|di- sant, a-|
 A4 B4 | c4 B4 | A2 G4 D2 | F4 C4 | z2 c2 B2 A2 | B4 G2 G2- | G2 F2 E2 D2 | E2 F2 D4 | E8 | %42
w: my, bai-|sez moy,|puis la bai-|se et|si l'ac- col|le, puis la|_ bai- s'et si|l'ac- col- le,|et|
 C2 C2 c4 | z2 B2 c4 | z2 A2 A4 | z2 G2 c4 | z2 A2 A2 E2 | ^F8 | A2 B2 c4 | B4 A4 | G6 F2 | E4 D4 | %52
w: luy fit je|ne, je|ne, je|ne, je|ne scay quoy,|je|ne se- ray|ja- mais|ber- giè-|re, je-|
 z4 z2 A2- | A2 G4 F2- | F2 E4 D2 | ^C2 D2 C4 | D4 D2 D2 | E4 ^F4 | G2 G2 A4 | B4 c2 c2 | dcBA G4 | %61
w: ne|_ se- ray|* ja- mais|ber- giè- re,|sy le ber-|gier, sy|le ber- gier|n'est a- vec,|a- _ _ _ _|
 z2 G4 ^F2 | !fermata!G8 |] %63
w: vec moy.|píÜoísJe|
V:3
 z8 | z8 | z8 | z8 | d2 e2 f4 | e4 d4 | c4 d4 | A4 A4 | z8 | z4 d2 d2 | e4 f4 | g2 g2 a4 | d4 e4 | %13
w: ||||ja- mais ber-|giè- re,|sy le|ber- gier,||sy le|ber- gier|n'est a- vec|moy, il|
 c4 d4 | G8 | z8 | G6 G2 | c4 g4 | e2 f2 d4 | c2 c2 d4 | e2 g4 e2 | f2 d2 e2 c2 | g4 z2 g2 | %23
w: es- toit|u-||ne fil-|let- te,|fil- let- te,|bel- le fil-|le sans es-|moy, veit son a-|my, veit|
 e2 e2 c4 | z2 c2 A2 A2 | F4 z2 f2 | d2 d2 e4 | c4 d4 | G4 z4 | z8 | z4 d2 d2 | e4 g4 | f4 e4 | %33
w: son a- my,|veit son a-|my de-|vant soy, di-|sant, a-|my,||bai- sez|moy, puis|la ba-|
 d8 | c2 c2 G2 G2 | A2 c2 G4 | d2 f4 e2 | d2 c2 d2 d2 | G4 c4 | z4 z2 G2 | c2 F2 G4 | c4 c2 d2 | %42
w: s'et|si l'ac- col- le,|puis la bai|s'et si l'ac|col le, et si|l'ac- col-|le,|et luy fit|je ne, je|
 e4 c4 | g2 G2 c4 | z2 f2 d4 | z2 e2 c4 | z2 d2 A2 A2 | d8 |"^-natural" f2 g2 a4 | g4 z4 | z8 | %51
w: ne, je|ne, je ne,|je ne|scay quoy,|je ne se-|ray|je ne se-|ray||
 z8 | d2 e2 f4 | e4 d4 | c4 d4 | A4 A4 | z8 | z4 d2 d2 | e4 f4 | g2 g2 a4 | d4 e4 | c4 d4 | %62
w: |ja- mais ber-|giè- re,|sy le|ber- gier,-||sy le|ber- gier|n'est a- vec|moy. *||
 !fermata!G8 |] %63
w: |

